assets/images/logo.svg

<svg width="118" height="72" viewBox="0 0 118 72" fill="none" xmlns="http://www.w3.org/2000/svg">
<path d="M3 16.7H7.5V48H3V16.7ZM20.298 23.6H22.048C25.0814 23.6 26.598 25.0833 26.598 28.05V48H22.098V28.7C22.098 28.1 21.998 27.7167 21.798 27.55C21.598 27.35 21.198 27.25 20.598 27.25H18.848C18.248 27.25 17.8147 27.3833 17.548 27.65C17.3147 27.9167 17.198 28.3667 17.198 29V48H12.698V23.6H17.198V25.55C17.6314 24.25 18.6647 23.6 20.298 23.6ZM40.0598 14.55H44.5598V48H40.0598V46.05C39.6264 47.35 38.5931 48 36.9598 48H35.1598C32.1598 48 30.6598 46.5333 30.6598 43.6V28C30.6598 25.0333 32.1598 23.55 35.1598 23.55H36.9598C38.5931 23.55 39.6264 24.2 40.0598 25.5V14.55ZM36.6598 44.35H38.4098C39.0098 44.35 39.4264 44.2167 39.6598 43.95C39.9264 43.6833 40.0598 43.2333 40.0598 42.6V28.95C40.0598 28.3167 39.9264 27.8667 39.6598 27.6C39.4264 27.3333 39.0098 27.2 38.4098 27.2H36.6598C36.0598 27.2 35.6598 27.3 35.4598 27.5C35.2598 27.7 35.1598 28.0833 35.1598 28.65V42.9C35.1598 43.5 35.2598 43.9 35.4598 44.1C35.6598 44.2667 36.0598 44.35 36.6598 44.35ZM58.3273 23.6H62.8273V48H58.3273V46.05C57.894 47.35 56.8607 48 55.2273 48H53.4273C50.4273 48 48.9273 46.5333 48.9273 43.6V23.6H53.4273V42.9C53.4273 43.5 53.5273 43.9 53.7273 44.1C53.9273 44.2667 54.3273 44.35 54.9273 44.35H56.6773C57.2773 44.35 57.694 44.2167 57.9273 43.95C58.194 43.6833 58.3273 43.2333 58.3273 42.6V23.6ZM76.3391 14.55H80.8391V48H76.3391V46.05C75.9057 47.35 74.8724 48 73.2391 48H71.4391C68.4391 48 66.9391 46.5333 66.9391 43.6V28C66.9391 25.0333 68.4391 23.55 71.4391 23.55H73.2391C74.8724 23.55 75.9057 24.2 76.3391 25.5V14.55ZM72.9391 44.35H74.6891C75.2891 44.35 75.7057 44.2167 75.9391 43.95C76.2057 43.6833 76.3391 43.2333 76.3391 42.6V28.95C76.3391 28.3167 76.2057 27.8667 75.9391 27.6C75.7057 27.3333 75.2891 27.2 74.6891 27.2H72.9391C72.3391 27.2 71.9391 27.3 71.7391 27.5C71.5391 27.7 71.4391 28.0833 71.4391 28.65V42.9C71.4391 43.5 71.5391 43.9 71.7391 44.1C71.9391 44.2667 72.3391 44.35 72.9391 44.35ZM94.6066 23.6H99.1066V48H94.6066V46.05C94.1733 47.35 93.14 48 91.5066 48H89.7066C86.7066 48 85.2066 46.5333 85.2066 43.6V23.6H89.7066V42.9C89.7066 43.5 89.8066 43.9 90.0066 44.1C90.2066 44.2667 90.6066 44.35 91.2066 44.35H92.9566C93.5566 44.35 93.9733 44.2167 94.2066 43.95C94.4733 43.6833 94.6066 43.2333 94.6066 42.6V23.6ZM111.668 43.1V39.05C111.668 38.45 111.568 38.0667 111.368 37.9C111.168 37.7 110.768 37.6 110.168 37.6H107.618C104.518 37.6 102.968 36.1333 102.968 33.2V28.05C102.968 25.0833 104.518 23.6 107.618 23.6H111.268C114.402 23.6 115.968 25.0833 115.968 28.05V30.4H111.568V28.5C111.568 27.9 111.468 27.5167 111.268 27.35C111.068 27.15 110.668 27.05 110.068 27.05H108.868C108.268 27.05 107.868 27.15 107.668 27.35C107.468 27.5167 107.368 27.9 107.368 28.5V32.7C107.368 33.3 107.468 33.7 107.668 33.9C107.868 34.0667 108.268 34.15 108.868 34.15H111.468C114.535 34.15 116.068 35.6333 116.068 38.6V43.6C116.068 46.5333 114.518 48 111.418 48H107.718C104.618 48 103.068 46.5333 103.068 43.6V41.2H107.468V43.1C107.468 43.7 107.568 44.1 107.768 44.3C107.968 44.4667 108.368 44.55 108.968 44.55H110.168C110.768 44.55 111.168 44.4667 111.368 44.3C111.568 44.1 111.668 43.7 111.668 43.1Z" fill="white"/>
<g clip-path="url(#clip0_101_2008)">
<path d="M14.4653 5.12838L27.9094 18.4028L30 16.3386L14.4653 1L3 12.3206L5.09058 14.3848L14.4653 5.12838Z" fill="#FE693E"/>
<path d="M13.6435 12.3595H11.027V14.943H13.6435V12.3595Z" fill="#FE693E"/>
<path d="M17.9891 12.3595H15.3726V14.943H17.9891V12.3595Z" fill="#FE693E"/>
<path d="M13.6435 16.423H11.027V19.0065H13.6435V16.423Z" fill="#FE693E"/>
<path d="M17.9891 16.423H15.3726V19.0065H17.9891V16.423Z" fill="#FE693E"/>
</g>
<defs>
<clipPath id="clip0_101_2008">
<rect width="27" height="18" fill="white" transform="translate(3 1)"/>
</clipPath>
</defs>
</svg>

<?xml version="1.0" encoding="UTF-8"?>
<svg id="_Слой_1" data-name="Слой_1" xmlns="http://www.w3.org/2000/svg" xmlns:xlink="http://www.w3.org/1999/xlink" version="1.1" viewBox="0 0 118 72">
  <!-- Generator: Adobe Illustrator 30.0.0, SVG Export Plug-In . SVG Version: 2.1.1 Build 123)  -->
  <defs>
    <style>
      .st0, .st1 {
        fill: none;
      }

      .st2 {
        fill: #fe693e;
      }

      .st3 {
        fill: #fff;
      }

      .st1 {
        stroke: #000;
        stroke-miterlimit: 10;
      }

      .st4 {
        clip-path: url(#clippath);
      }
    </style>
    <clipPath id="clippath">
      <rect class="st0" x="3" y="1" width="27" height="18"/>
    </clipPath>
  </defs>
  <path class="st3" d="M3,16.7h4.5v31.3H3v-31.3ZM20.3,23.6h1.75c3.03,0,4.55,1.48,4.55,4.45v19.95h-4.5v-19.3c0-.6-.1-.98-.3-1.15-.2-.2-.6-.3-1.2-.3h-1.75c-.6,0-1.03.13-1.3.4-.23.27-.35.72-.35,1.35v19h-4.5v-24.4h4.5v1.95c.43-1.3,1.47-1.95,3.1-1.95ZM40.06,14.55h4.5v33.45h-4.5v-1.95c-.43,1.3-1.47,1.95-3.1,1.95h-1.8c-3,0-4.5-1.47-4.5-4.4v-15.6c0-2.97,1.5-4.45,4.5-4.45h1.8c1.63,0,2.67.65,3.1,1.95v-10.95ZM36.66,44.35h1.75c.6,0,1.02-.13,1.25-.4.27-.27.4-.72.4-1.35v-13.65c0-.63-.13-1.08-.4-1.35-.23-.27-.65-.4-1.25-.4h-1.75c-.6,0-1,.1-1.2.3s-.3.58-.3,1.15v14.25c0,.6.1,1,.3,1.2.2.17.6.25,1.2.25ZM58.33,23.6h4.5v24.4h-4.5v-1.95c-.43,1.3-1.47,1.95-3.1,1.95h-1.8c-3,0-4.5-1.47-4.5-4.4v-20h4.5v19.3c0,.6.1,1,.3,1.2.2.17.6.25,1.2.25h1.75c.6,0,1.02-.13,1.25-.4.27-.27.4-.72.4-1.35v-19ZM76.34,14.55h4.5v33.45h-4.5v-1.95c-.43,1.3-1.47,1.95-3.1,1.95h-1.8c-3,0-4.5-1.47-4.5-4.4v-15.6c0-2.97,1.5-4.45,4.5-4.45h1.8c1.63,0,2.67.65,3.1,1.95v-10.95ZM72.94,44.35h1.75c.6,0,1.02-.13,1.25-.4.27-.27.4-.72.4-1.35v-13.65c0-.63-.13-1.08-.4-1.35-.23-.27-.65-.4-1.25-.4h-1.75c-.6,0-1,.1-1.2.3-.2.2-.3.58-.3,1.15v14.25c0,.6.1,1,.3,1.2.2.17.6.25,1.2.25ZM94.61,23.6h4.5v24.4h-4.5v-1.95c-.43,1.3-1.47,1.95-3.1,1.95h-1.8c-3,0-4.5-1.47-4.5-4.4v-20h4.5v19.3c0,.6.1,1,.3,1.2.2.17.6.25,1.2.25h1.75c.6,0,1.02-.13,1.25-.4.27-.27.4-.72.4-1.35v-19ZM111.67,43.1v-4.05c0-.6-.1-.98-.3-1.15-.2-.2-.6-.3-1.2-.3h-2.55c-3.1,0-4.65-1.47-4.65-4.4v-5.15c0-2.97,1.55-4.45,4.65-4.45h3.65c3.13,0,4.7,1.48,4.7,4.45v2.35h-4.4v-1.9c0-.6-.1-.98-.3-1.15-.2-.2-.6-.3-1.2-.3h-1.2c-.6,0-1,.1-1.2.3-.2.17-.3.55-.3,1.15v4.2c0,.6.1,1,.3,1.2.2.17.6.25,1.2.25h2.6c3.07,0,4.6,1.48,4.6,4.45v5c0,2.93-1.55,4.4-4.65,4.4h-3.7c-3.1,0-4.65-1.47-4.65-4.4v-2.4h4.4v1.9c0,.6.1,1,.3,1.2.2.17.6.25,1.2.25h1.2c.6,0,1-.08,1.2-.25.2-.2.3-.6.3-1.2Z"/>
  <g class="st4">
    <g>
      <path class="st2" d="M14.47,5.13l13.44,13.27,2.09-2.06L14.47,1,3,12.32l2.09,2.06L14.47,5.13Z"/>
      <path class="st2" d="M13.64,12.36h-2.62v2.58h2.62v-2.58Z"/>
      <path class="st2" d="M17.99,12.36h-2.62v2.58h2.62v-2.58Z"/>
      <path class="st2" d="M13.64,16.42h-2.62v2.58h2.62v-2.58Z"/>
      <path class="st2" d="M17.99,16.42h-2.62v2.58h2.62v-2.58Z"/>
    </g>
  </g>
  <path class="st1" d="M5.21,12.77c14.69,15.78,33.1,28.07,53.3,35.59,4.57,1.7,10.37,2.92,13.8-.54,1.76-1.78,2.39-4.4,2.53-6.9.68-12.3-10.38-23.98-22.69-23.97-1.8,13.87-5.14,27.53-9.96,40.65,2.42-20.57,2.61-41.4.59-62.01-.61-6.18-2.36-13.55-8.26-15.48C26.77-2.5,19.97,15.32,14.17,33.45c12.67-3.5,20.78-18.58,16.7-31.08-.58-1.78-1.59-3.69-3.41-4.13-2.93-.71-5.02,2.73-6.05,5.56-5.47,15.09-10.57,30.31-15.29,45.66-.36,1.16-.7,2.48-.12,3.55.66,1.23,2.23,1.59,3.62,1.76,16.88,2.06,33.38-5.85,47.55-15.26,23.95-15.89,44.6-36.74,60.26-60.85,7.65-11.78,14.24-24.69,15.84-38.64"/>
</svg>
